X:7185
T:Hopkinson's Hornpipe. FK.24
M:C
L:1/8
Q:160
C:"Swallows MS 115"
S:Kidson's H'pipe MS,early 20thC.
R:Hornpipe
O:England
A:Leeds
N:
Z:vmp.John Bagnall
K:B_
F | BABc BFdc | BABc BFdc | Bcde fdgf | edcB AFGA |!
 BABc BFdc | BABc AFdc | BfdB AFGA | B2 B2 B2||!
AB | cBAB cdec | dcBc defd | cBAB cded | cBAG Ffec |!
 BABc BFdc | BABc BFdc | BfdB AFGA | B2 B2 B2 ||
